icons/1_Primary/IVPN.svg

<svg xmlns="http://www.w3.org/2000/svg" width="1024" height="1024" fill="none">
   <g clip-path="url(#a)">
      <path fill="#FF837D" d="M512 1024c282.77 0 512-229.23 512-512S794.77 0 512 0 0 229.23 0 512s229.23 512 512 512Z"/>
      <path fill="#fff" d="M267 451.92c-.52-22.65-28-28.12-31.37-29-3.62-.92-3.24-4.88-3.24-4.88h85.08a1.683 1.683 0 0 1 1.3.61 1.732 1.732 0 0 1 .38 1.4l-29.62 181.87a1.713 1.713 0 0 1-1.58 1.45l-44.17 2.56h-.1a1.703 1.703 0 0 1-1.27-.57 1.749 1.749 0 0 1-.41-1.44l25-152Zm225.52-33a1.726 1.726 0 0 1 .05 1.67l-87.62 171.6a1.661 1.661 0 0 1-1.39.91l-50.37 2.9h-.09a1.68 1.68 0 0 1-1.64-1.39l-32.31-174.52a1.727 1.727 0 0 1 .93-1.855c.221-.107.464-.164.71-.165h43.63a1.68 1.68 0 0 1 1.64 1.4l20.36 116.08L446.23 419a1.67 1.67 0 0 1 1.48-.91H491a1.67 1.67 0 0 1 1.47.8l.05.03Zm135 36.84a69.694 69.694 0 0 1-.83 18.19L622.81 496c-2.39 13.65-6.86 24.4-13.27 31.95-6.41 7.55-13.05 13-19.92 16.46a66.411 66.411 0 0 1-25.86 6.87h-40.51l-5 31a1.646 1.646 0 0 1-1.51 1.4l-41.62 2.44h-.09a1.613 1.613 0 0 1-1.21-.56 1.711 1.711 0 0 1-.39-1.39l26.73-164.74a1.642 1.642 0 0 1 1.61-1.4h82.79c9.35.58 17.54 2.9 24.42 6.92a43.405 43.405 0 0 1 8.22 6.69 35.278 35.278 0 0 1 6.7 10.11 45.761 45.761 0 0 1 3.55 13.97l.07.04Zm-48 39.37 3.48-21.49a16.63 16.63 0 0 0-.74-6.41 11.765 11.765 0 0 0-3.08-4.35c-1.31-1.2-3.51-1.81-6.52-1.81h-35.29L530 508h34.73c2.589.135 5.16-.498 7.39-1.82a16.845 16.845 0 0 0 4.58-4.44 17.004 17.004 0 0 0 2.75-6.65l.07.04Zm210.57-77a1.608 1.608 0 0 1 1.26.62 1.827 1.827 0 0 1 .37 1.43l-24.25 156.17a1.69 1.69 0 0 1-1.53 1.47l-57.1 3.49a1.674 1.674 0 0 1-1.65-1.17l-22.69-67.51-10.74 69.44a1.69 1.69 0 0 1-1.53 1.47l-42.85 2.61a1.607 1.607 0 0 1-1.23-.59 1.833 1.833 0 0 1-.4-1.47l25.7-164.56a1.69 1.69 0 0 1 1.63-1.47h42.11a1.662 1.662 0 0 1 1.55 1.16l32.53 96.39 15-96.08a1.69 1.69 0 0 1 1.63-1.47l42.19.07Z"/>
   </g>
   <defs>
      <clipPath id="a">
         <path fill="#fff" d="M0 0h1024v1024H0z"/>
      </clipPath>
   </defs>
</svg>

<svg width="1024" height="1024" viewBox="0 0 1024 1024" fill="none" xmlns="http://www.w3.org/2000/svg">
<g clip-path="url(#clip0_2_2547)">
<path d="M512 1024C794.77 1024 1024 794.77 1024 512C1024 229.23 794.77 0 512 0C229.23 0 0 229.23 0 512C0 794.77 229.23 1024 512 1024Z" fill="#FF837D"/>
<path d="M267 451.92C266.48 429.27 239 423.8 235.63 422.92C232.01 422 232.39 418.04 232.39 418.04H317.47C317.718 418.04 317.963 418.094 318.188 418.2C318.413 418.305 318.611 418.459 318.77 418.65C318.931 418.842 319.048 419.066 319.114 419.308C319.179 419.55 319.192 419.803 319.15 420.05L289.53 601.92C289.471 602.305 289.283 602.66 288.996 602.923C288.708 603.187 288.339 603.345 287.95 603.37L243.78 605.93H243.68C243.44 605.93 243.203 605.88 242.984 605.782C242.765 605.683 242.569 605.54 242.41 605.36C242.239 605.165 242.114 604.935 242.043 604.686C241.972 604.437 241.958 604.175 242 603.92L267 451.92ZM492.52 418.92C492.669 419.171 492.751 419.456 492.76 419.748C492.769 420.04 492.703 420.33 492.57 420.59L404.95 592.19C404.819 592.45 404.621 592.671 404.377 592.831C404.133 592.991 403.851 593.084 403.56 593.1L353.19 596H353.1C352.707 595.996 352.328 595.855 352.029 595.601C351.729 595.348 351.528 594.997 351.46 594.61L319.15 420.09C319.105 419.844 319.115 419.592 319.177 419.35C319.239 419.109 319.353 418.883 319.51 418.69C319.664 418.498 319.858 418.342 320.08 418.235C320.301 418.128 320.544 418.071 320.79 418.07H364.42C364.814 418.074 365.194 418.216 365.494 418.472C365.794 418.728 365.994 419.081 366.06 419.47L386.42 535.55L446.23 419C446.369 418.727 446.581 418.498 446.842 418.337C447.103 418.177 447.404 418.091 447.71 418.09H491C491.294 418.082 491.584 418.152 491.842 418.292C492.101 418.433 492.317 418.639 492.47 418.89L492.52 418.92ZM627.52 455.76C628.04 461.833 627.761 467.949 626.69 473.95L622.81 496C620.42 509.65 615.95 520.4 609.54 527.95C603.13 535.5 596.49 540.95 589.62 544.41C581.555 548.431 572.757 550.768 563.76 551.28H523.25L518.25 582.28C518.194 582.65 518.015 582.99 517.74 583.244C517.466 583.499 517.113 583.652 516.74 583.68L475.12 586.12H475.03C474.8 586.119 474.573 586.068 474.364 585.972C474.155 585.875 473.97 585.735 473.82 585.56C473.658 585.371 473.538 585.148 473.471 584.908C473.404 584.668 473.39 584.416 473.43 584.17L500.16 419.43C500.217 419.043 500.411 418.689 500.706 418.432C501.001 418.175 501.379 418.033 501.77 418.03H584.56C593.91 418.61 602.1 420.93 608.98 424.95C611.983 426.836 614.743 429.082 617.2 431.64C620 434.598 622.267 438.018 623.9 441.75C625.814 446.19 627.012 450.905 627.45 455.72L627.52 455.76ZM579.52 495.13L583 473.64C583.174 471.475 582.923 469.298 582.26 467.23C581.579 465.563 580.526 464.075 579.18 462.88C577.87 461.68 575.67 461.07 572.66 461.07H537.37L530 508H564.73C567.319 508.135 569.89 507.502 572.12 506.18C573.916 505.005 575.47 503.498 576.7 501.74C578.081 499.745 579.018 497.477 579.45 495.09L579.52 495.13ZM790.09 418.13C790.333 418.131 790.573 418.188 790.791 418.295C791.009 418.403 791.2 418.558 791.35 418.75C791.508 418.949 791.622 419.18 791.686 419.426C791.749 419.672 791.761 419.929 791.72 420.18L767.47 576.35C767.421 576.733 767.243 577.087 766.964 577.355C766.686 577.622 766.325 577.786 765.94 577.82L708.84 581.31C708.475 581.322 708.116 581.214 707.818 581.003C707.52 580.792 707.299 580.488 707.19 580.14L684.5 512.63L673.76 582.07C673.711 582.453 673.533 582.807 673.254 583.075C672.976 583.342 672.615 583.506 672.23 583.54L629.38 586.15C629.144 586.148 628.912 586.094 628.699 585.992C628.486 585.89 628.299 585.743 628.15 585.56C627.982 585.358 627.86 585.122 627.791 584.868C627.722 584.615 627.708 584.349 627.75 584.09L653.45 419.53C653.502 419.131 653.695 418.764 653.994 418.494C654.293 418.225 654.678 418.071 655.08 418.06H697.19C697.537 418.067 697.874 418.182 698.152 418.39C698.43 418.599 698.635 418.889 698.74 419.22L731.27 515.61L746.27 419.53C746.322 419.131 746.515 418.764 746.814 418.494C747.113 418.225 747.498 418.071 747.9 418.06L790.09 418.13Z" fill="white"/>
</g>
<defs>
<clipPath id="clip0_2_2547">
<rect width="1024" height="1024" fill="white"/>
</clipPath>
</defs>
</svg>
